X: 24809
T: Maggie O' Ham
R: slide
M: 12/8
K: Gmajor
|:D|GAB d2 e d2 B A2 D|GAB A2 B GAB d2 D|
GAB d2 e d2 B A2 D|GAB A2 B G3- G2:|
d|g2 g gbg f2 f faf|efg d2 B A3- A2 d|
gbg gag faf fgf|gdB c2 F G3- G2 d|
g2 g gbg f2 f f3|efg d2 B A3- A2 D|
GAB d2 e d2 B A2 c|BAG A2 F G3- G2||

